X: 5
T: The Lochaber Badger
R: reel
M: 4/4
L: 1/8
K: Emin
|:B2 AG AG E2|E2 DE GDEG|B2 AG AG E2|EDGD E2E2:|
|:E2 DE GE (A2|A2) AG A/B/d (B2|B2) AG AG E2|EDGD E2E2:|


Tune 5758	Setting 27860

